X: 41
%
U:~=!turn!
U:t=!tenuto!
U:m=!diminuendo(!
U:p=!diminuendo)!
T: Blairnanes Rant
C:James Scott Skinner
O:Scotland
B:Keith Norman MacDonald : "The Skye collection of the best reels & strathspeys extant" : 1887
Z:Ralph Palmer
R:Strathspey
M:C
L:1/8
K:D
F | TF<A-A>B (tA>.B)(td>.f) | (te>.f)(te>.d) [G2B2]-[GB]<d | F<A-A>B A>Bd>[gb] | a<f e>f d2 d & e>de>f d2 F :|
D | TD<dd>B (tB>.A)(tA>.D) | TD<dd>B (B<A)(tA>.D) | D<dd>B B>AA>{G/}F | L(tG>.A)(tF>.G) [C2E2]-[CE]>D |
D<d (td>.B) (tB>.A)(tA>.D) | TD<dd>B (B<A) (tA>.c) | !f!(3Ldcd (3Lefg (3Lfed (3LcBA | m(3cBA (3GFE D2-pD |]


